!!!COM: Johanna Kinkel
!!!CNT: Deutsch
!!!TXO: Deutsch
!!!OTL: Traumdeutung
!!!LYR: Goethe
!!!OPR: Sechs Lieder
!!!OPS: Op. 10
!!!ONM: No. 4
!!!ENC: Ben Fuhrman
!!!YOR: Johanna Kinkel: Lieder, volume 1 Poetry by Geibel and Goethe
!!!YOR: Bryn Mawr, Fildegard Publishing CO, 2000
!!!ODT: 1839
!!NB: Only vocal melody encoded.
!!NB: First instance of melodic material only encoded.
!!created: 2/24/10 12:38PM
!!proofed and posted: 2/24/10 12:40PM
**kern	**silbe
*clef G2	*
*k[b-]	*
*M4/4	*
*MM[Moderato]	*
=5	=5
{4c	{Als
4f	ich
4.a	auf
8f	dem
=6	=6
8f	Eu-
8e	|
8f	-phrat
8g	|
4a	schiff-
4f	-te,
=7	=7
4a	streif-
4b-	-te
4.a	sich
8a	der
=8	=8
4a	gold'-
4g	-ne
2a}	Ring}
=9	=9
{8a	{fin
8f	|
8c	-ger-
8f	|
4.a	-ab
8a	-in
=10	=10
b-q	Was
8a	|
8g#	|
8a	-ser-
8bn	|
4cc	-klu2f-
4a	-te
=11	=11
4e	den
8a	ich
8cc#	|
4.e	ju2ngst
8a	von
=12	=12
4.cc#	dir
8bn	em-
2a}	-pfing.}
!! Rest to measure 15
=15	=15
{4.g#	{Al-
8g#	-so
8g#	tra2umt'
8e	|
4e	ich:
=16	=16
4.ee	Mor-
8dd	-gen-
8dd	-ro2-
8cc#	|
4cc#	-the
=17	=17
4.cc#	blizt'
8cc#	ins
4.dd	Au-
8ccn	-ge
=18	=18
8bn	durch
8b	|
8a	den
8bn	|
(4.cc	Baum;
8b-)}	|}
=19	=19
{4.a	{sag
8f	Po-
4dd	-e-
4cc	-te,
=20	=20
4.cc	sag
8a	Pro-
4gg	-phe-
4ff	-te!
=21	=21
4.ee	was
8dd	be-
4.dd	-deu-
8cc	-tet
=22	=22
4.cc	die-
8g	-ser
2a}	Traum?}
=23	=23
{4.a	{sag
8f	Po-
4dd	-e-
4cc	-te,
=24	=24
4.cc	sag
8a	Pro-
4gg	-phe-
4ff	-te
=25	=25
4ee	was
4dd	be-
4.cc	-deu-
8dd	-tet
=26	=26
8ee	die-
8cc	|
8dd	-ser
8ee	|
2ff}	Traum?}
=27	=27
{4.g	{was
8cc	be-
4.a	-deu-
8cc	-tet
=28	=28
4.dd	die-
8cc	-ser
[2cc	Traum?
=29	=29
1cc_	|
=30	=30
1cc_	|
=31	=31
1cc]}	|}
==	==
*-	*-
